X:1025
T:Iron Lege Hornpipe
A:Wyresdale, Lancashire
B:E and J Winder, 1835-41
L:1/8
M:4/4
O:England
Z:Richard Robinson <URL:http://www.qualmograph.org.uk/contact.html>
K:D
AG |\
F2A2 F2AG | F2EF D2A2 | B2c2d2ed | c2Bc A2AG |
F2A2 E2AG | F2EF D2A2 | Bcd2 gedc | d2d2 d2 ::
fgfg egeg | fgeg egeg | dede cece | dede cece |
BdBd AdAd | BdBd AdAd | Bcd2 gedc | d2d2 d2 :|

